X:1
T:THE GARDEN SONG
M:4/4
L:1/4
K:D
 D A A3/2 D/2| G B A2-| A/2 z/2 G3/4 G/4 F E| F D A,2-| A,/2 z/2 G3/4 G/4 F E3/4 E/4|\
 F z/2 F/4E/4| D z/2 E/4F/4| E B, C D| E3- E/2 z/2| D A A3/2 D/2| G B A2-|\
 A/2 z/2 G3/4 G/4 F E| F D| A,2-| A,/2 z/2 G3/4 G/4 F E| F E D F3/4 F/4|\
 E B, C3/4 D/4 E| D2- D/2 z/2||
